X: 32391
T: Piper On Horseback, The
R: reel
M: 4/4
K: Dmajor
|:~F3d cAAB|cAdB cAGE|F2Fd cAAB|cAGE FDD2:|
defg afdf|efed cAA2|defg afdB|ABAG FDD2|
defg afdf|efed cAAe|f2fd e2ed|cAGE FDD2||

